frontend/public/svg/e-commerce/warehouse.svg

<svg width="161" height="146" viewBox="0 0 161 146" fill="none" xmlns="http://www.w3.org/2000/svg">
<path d="M146.961 123.281C147.701 123.324 148.474 123.393 149.248 123.412C152.286 123.477 154.743 124.108 155.314 127.813C155.596 129.641 156.787 131.311 157.331 133.123C158.25 136.174 157.033 138.435 154.05 139.459C153.2 139.753 152.31 139.919 151.412 139.955C134.247 140.539 117.081 141.057 99.9168 141.667C87.3512 142.114 74.7896 142.686 62.2253 143.183C55.3816 143.453 48.536 143.684 41.6917 143.932C33.947 144.212 26.2094 144.565 18.4646 144.739C14.9873 144.847 11.5066 144.722 8.04589 144.365C3.49355 143.856 2.07322 142.025 2.05943 137.453C2.0555 136.442 2.07849 135.431 2.07717 134.42C2.06995 130.61 3.17719 129.268 7.08371 128.874C9.18398 128.662 11.3177 128.836 13.7941 128.836C14.2096 109.885 14.6165 91.3176 15.0346 72.2083C13.5906 73.2322 12.3797 74.134 11.1261 74.9715C6.43656 78.1075 2.38238 76.2185 1.88553 70.6338C1.63743 67.8384 1.77526 64.9944 1.35258 62.2326C0.499338 56.6399 3.05904 52.8469 7.26551 49.6814C15.8793 43.2013 24.3303 36.501 33.0596 30.1745C46.9002 20.1898 61.2553 10.9377 76.0655 2.4571C78.7565 0.908801 80.4754 0.925509 83.0115 2.40358C97.6603 10.9405 112.19 19.6429 126.222 29.1907C135.683 35.6287 145.501 41.5476 155.224 47.5957C157.711 49.1427 159.302 50.8116 159.08 54.0428C158.913 56.4712 159.453 58.9529 159.689 61.4096C159.926 63.8761 160.159 66.3078 158.889 68.6424C157.329 71.508 155.324 72.5975 152.233 71.5585C149.945 70.79 147.816 69.5482 145.748 68.5794C146.149 86.651 146.552 104.788 146.961 123.281ZM138.847 123.937C138.847 121.847 138.861 120.074 138.847 118.302C138.686 100.676 138.49 83.0517 138.404 65.4258C138.396 63.6819 137.687 62.8881 136.341 62.0178C125.789 55.1958 115.296 48.2834 104.78 41.4089C96.723 36.1389 88.654 30.8691 80.5725 25.5991C78.4401 27.1894 76.5033 28.7088 74.4903 30.1278C57.513 42.084 40.5187 54.0161 23.5072 65.9238C21.3735 67.4111 20.3444 68.9325 20.4225 71.6668C20.8878 87.944 21.1576 104.221 21.5126 120.498C21.5658 122.927 21.7253 125.359 21.8506 128.112L28.4751 127.647C28.4751 124.83 28.4547 122.482 28.479 120.135C28.6332 104.986 27.9415 89.8198 29.4688 74.6985C29.8363 71.0584 30.1632 70.5937 33.7625 69.8416C34.6394 69.6584 35.5346 69.5495 36.4266 69.453C41.4456 68.9102 46.4574 68.2624 51.4889 67.8725C63.0116 66.9793 74.5355 66.0565 86.0746 65.4441C97.0591 64.8613 108.062 64.7098 119.058 64.2628C125.364 64.0075 128.292 66.2856 128.731 72.5516C129.344 81.2809 129.869 90.0239 130.165 98.7703C130.408 105.949 130.248 113.144 130.297 120.327C130.306 121.617 130.463 122.906 130.566 124.424L138.847 123.937ZM121.984 71.9116C109.841 70.6699 44.5947 73.46 34.8094 75.6784C34.7529 76.5927 34.6309 77.5739 34.6427 78.5525C34.8339 94.1549 35.0404 109.757 35.2623 125.359C35.3509 126.069 35.5046 126.769 35.7217 127.451L44.9715 126.895C44.9715 121.396 45.0371 116.345 44.9452 111.297C44.9006 108.754 46.1181 107.279 48.3916 106.571C49.5734 106.229 50.7805 105.982 52.0015 105.832C53.9744 105.55 55.9586 105.351 57.9893 105.11C57.9893 104.074 57.9663 103.31 57.9932 102.55C58.1534 97.9558 58.194 93.3568 58.5439 88.7789C58.7355 86.2749 59.6662 85.3292 62.1715 85.1434C69.5494 84.5954 76.9364 84.1812 84.3327 83.901C86.9101 83.8058 87.9485 84.9078 88.4643 87.4288C88.7787 88.9646 88.9494 90.532 89.1496 92.0888C89.5867 95.4919 90.0028 98.897 90.4261 102.313C90.9762 102.373 91.5301 102.395 92.0834 102.379C97.8736 101.661 99.6424 103.722 100.634 108.923C101.654 114.281 102.486 119.675 103.475 125.49L122.829 124.751C122.542 106.895 122.264 89.5186 121.984 71.9103V71.9116ZM80.2444 8.0289C79.0676 8.79288 78.1507 9.4353 77.1898 10.005C54.9445 23.1974 34.0218 38.3169 13.2198 53.6313C10.1455 55.895 8.9792 58.2369 9.58632 61.7759C9.8121 63.0886 9.96896 64.419 10.2203 66.1793C13.3288 63.9398 16.1274 61.9128 18.9365 59.9005C37.2702 46.7488 55.6076 33.6003 73.9488 20.4548C74.7672 19.8681 75.6487 19.3664 76.5157 18.8499C77.2692 18.3469 78.1651 18.1021 79.0702 18.1522C79.9746 18.2022 80.8384 18.5446 81.5314 19.1277C83.2484 20.3905 84.9753 21.652 86.7822 22.7789C107.349 35.6031 127.339 49.3494 148.442 61.3144C149.369 61.8395 150.326 62.3133 151.519 62.9427C151.748 60.6803 151.804 58.8733 152.141 57.1242C152.586 54.8158 151.741 53.4395 149.786 52.1727C133.962 41.9148 118.258 31.4682 102.392 21.2746C95.2259 16.6697 87.7732 12.5111 80.2444 8.02765V8.0289ZM7.24516 138.968C9.11861 139.236 11.0058 139.395 12.8975 139.446C23.5473 139.097 34.1937 138.647 44.8422 138.25C53.3621 137.933 61.8853 137.68 70.4039 137.331C79.2579 136.969 88.1053 136.42 96.9613 136.14C111.648 135.676 126.36 135.845 140.986 134.1C143.324 133.821 145.678 133.683 148.015 133.401C148.943 133.288 150.246 133.441 150.213 131.942C150.175 130.359 148.941 130.735 147.968 130.765C147.744 130.773 147.521 130.814 147.297 130.823C139.672 131.12 132.049 131.516 124.421 131.69C105.905 132.111 87.3853 132.391 68.8694 132.797C48.7854 133.239 28.7015 133.76 8.61756 134.252C8.08265 134.265 7.54839 134.336 6.80081 134.397C6.94717 135.889 7.0732 137.188 7.24516 138.969V138.968ZM67.9492 126.315V110.024C62.0422 110.339 56.3976 110.024 50.7663 111.245C51.3918 116.561 51.9759 121.527 52.5384 126.315H67.9492ZM93.6849 125.437C93.1906 120.006 92.7227 114.86 92.26 109.769H75.6159C76.3707 115.347 77.0808 120.594 77.8205 126.057L93.6849 125.437ZM82.6433 89.1149C76.4901 89.002 70.4505 88.7467 64.0794 89.5494C64.6879 94.6879 65.2608 99.5133 65.8332 104.364L82.6433 102.669V89.1149Z" fill="black"/>
</svg>

<svg xmlns="http://www.w3.org/2000/svg" width="161" height="146" fill="none" viewBox="0 0 161 146"><path fill="#000" d="M146.961 123.281c.74.043 1.513.112 2.287.131 3.038.065 5.495.696 6.066 4.401.282 1.828 1.473 3.498 2.017 5.31.919 3.051-.298 5.312-3.281 6.336-.85.294-1.74.46-2.638.496-17.165.584-34.331 1.102-51.495 1.712-12.566.447-25.127 1.019-37.692 1.516-6.843.27-13.689.501-20.533.749-7.745.28-15.483.633-23.227.807a78 78 0 0 1-10.42-.374c-4.551-.509-5.972-2.34-5.986-6.912-.004-1.011.02-2.022.018-3.033-.007-3.81 1.1-5.152 5.007-5.546 2.1-.212 4.234-.038 6.71-.038.416-18.951.822-37.518 1.24-56.628-1.443 1.024-2.654 1.926-3.908 2.764-4.69 3.136-8.744 1.247-9.24-4.338-.249-2.796-.11-5.64-.533-8.401-.854-5.593 1.706-9.386 5.913-12.552 8.613-6.48 17.064-13.18 25.794-19.506A488 488 0 0 1 76.066 2.456c2.69-1.548 4.41-1.531 6.945-.053 14.65 8.537 29.179 17.239 43.211 26.787 9.461 6.438 19.279 12.357 29.002 18.405 2.487 1.547 4.078 3.216 3.856 6.447-.167 2.428.373 4.91.609 7.367.237 2.466.47 4.898-.8 7.232-1.56 2.866-3.565 3.956-6.656 2.916-2.288-.768-4.417-2.01-6.485-2.979.401 18.072.804 36.209 1.213 54.702m-8.114.656c0-2.09.014-3.863 0-5.635-.161-17.626-.357-35.25-.443-52.876-.008-1.744-.717-2.538-2.063-3.408-10.552-6.822-21.045-13.735-31.561-20.61Q92.694 33.505 80.573 25.6c-2.133 1.59-4.07 3.11-6.083 4.529a21797 21797 0 0 1-50.983 35.796c-2.134 1.487-3.163 3.008-3.085 5.743.466 16.277.736 32.554 1.09 48.831.054 2.429.213 4.861.339 7.614l6.624-.465c0-2.817-.02-5.165.004-7.512.154-15.149-.537-30.315.99-45.437.367-3.64.694-4.104 4.294-4.856.876-.184 1.772-.293 2.664-.389 5.019-.543 10.03-1.19 15.062-1.58 11.523-.894 23.047-1.817 34.586-2.429 10.984-.583 21.987-.734 32.983-1.181 6.306-.256 9.234 2.023 9.673 8.289.613 8.729 1.138 17.472 1.434 26.218.243 7.179.083 14.374.132 21.557.009 1.29.166 2.579.269 4.097zm-16.863-52.025c-12.143-1.242-77.39 1.548-87.175 3.766-.056.915-.178 1.896-.166 2.874q.285 23.404.62 46.807.133 1.067.459 2.092l9.25-.556c0-5.499.065-10.55-.027-15.598-.044-2.543 1.173-4.018 3.447-4.726a23 23 0 0 1 3.61-.739c1.972-.282 3.957-.481 5.987-.722 0-1.036-.023-1.8.004-2.56.16-4.594.201-9.193.55-13.771.193-2.504 1.123-3.45 3.629-3.636a612 612 0 0 1 22.16-1.242c2.578-.095 3.617 1.007 4.132 3.528.315 1.536.485 3.103.686 4.66.437 3.403.853 6.808 1.276 10.224q.826.09 1.657.066c5.79-.718 7.56 1.343 8.551 6.544 1.02 5.358 1.852 10.752 2.841 16.567l19.354-.739c-.287-17.856-.565-35.232-.845-52.84M80.244 8.029c-1.176.764-2.093 1.406-3.054 1.976-22.245 13.192-43.168 28.312-63.97 43.626-3.075 2.264-4.24 4.606-3.634 8.145.226 1.313.383 2.643.634 4.403 3.109-2.24 5.907-4.266 8.716-6.279Q46.438 40.174 73.95 20.456c.818-.587 1.7-1.089 2.567-1.605a4.18 4.18 0 0 1 5.015.278c1.717 1.262 3.444 2.524 5.251 3.65 20.567 12.825 40.557 26.571 61.66 38.536.927.526 1.884 1 3.077 1.629.229-2.263.285-4.07.622-5.819.445-2.308-.4-3.684-2.355-4.951-15.824-10.258-31.528-20.705-47.394-30.898-7.166-4.605-14.619-8.764-22.148-13.247m-73 130.939q2.812.402 5.653.478c10.65-.349 21.296-.799 31.944-1.196 8.52-.317 17.043-.57 25.562-.919 8.854-.362 17.701-.911 26.557-1.191 14.687-.464 29.399-.295 44.025-2.04 2.338-.279 4.692-.417 7.029-.699.928-.113 2.231.04 2.198-1.459-.038-1.583-1.272-1.207-2.245-1.177-.224.008-.447.049-.671.058-7.625.297-15.248.693-22.876.867-18.516.421-37.036.701-55.552 1.107-20.084.442-40.168.963-60.251 1.455-.535.013-1.07.084-1.817.145.146 1.492.272 2.791.444 4.572zm60.704-12.653v-16.291c-5.907.315-11.551 0-17.183 1.221l1.772 15.07zm25.736-.878-1.425-15.668H75.616l2.204 16.288zM82.643 89.115c-6.153-.113-12.192-.368-18.564.434.609 5.139 1.182 9.964 1.754 14.815l16.81-1.695z"/></svg>
